;FLAVOR:Marlin
;TIME:6776
;Filament used: 3.19398m
;Layer height: 0.2
;MINX:33.219
;MINY:59.916
;MINZ:0.24
;MAXX:185.584
;MAXY:159.099
;MAXZ:22.69
;TARGET_MACHINE.NAME:Creality Ender-3 Pro
;Generated with Cura_SteamEngine 5.7.1
M82 ;absolute extrusion mode
; Ender 3 Custom Start G-code
G92 E0 ; Reset Extruder
G28 ; Home all axes
G1 Z5.0 F3000 ; Move Z Axis up a bit during heating to not damage bed
M104 S175 ; Start heating up the nozzle most of the way
M190 S60 ; Start heating the bed, wait until target temperature reached
M109 S216.0 ; Finish heating the nozzle
G1 Z2.0 F3000 ; Move Z Axis up little to prevent scratching of Heat Bed
G1 X0.1 Y20 Z0.3 F5000.0 ; Move to start position
G1 X0.1 Y200.0 Z0.3 F1500.0 E15 ; Draw the first line
G1 X0.4 Y200.0 Z0.3 F5000.0 ; Move to side a little
G1 X0.4 Y20 Z0.3 F1500.0 E30 ; Draw the second line
G92 E0 ; Reset Extruder
G1 Z2.0 F3000 ; Move Z Axis up little to prevent scratching of Heat Bed
G1 X5 Y20 Z0.3 F5000.0 ; Move over to prevent blob squish
G92 E0
G92 E0
G1 F1500 E-6.5
;LAYER_COUNT:108
;LAYER:-6
M107
G0 F9000 X110.254 Y89.995 Z0.24
;TYPE:SUPPORT-INTERFACE
G1 F1500 E0
G1 F1125 X109.834 Y90.411 E0.04719
G1 X109.399 Y90.949 E0.10242
G1 X109.044 Y91.534 E0.15704
G1 X108.765 Y92.168 E0.21233
G1 X108.589 Y92.735 E0.25972
G1 X97.847 Y135.827 E3.80478
G1 X97.723 Y136.504 E3.85972
G1 X97.688 Y137.184 E3.91407
G1 X97.737 Y137.876 E3.96944
G1 X97.861 Y138.509 E4.02093
G1 X97.982 Y138.882 E4.05224
G1 X97.97 Y138.897 E4.05377
G1 X98.096 Y139.209 E4.08063
G1 X98.386 Y139.804 E4.13347
G1 X98.753 Y140.37 E4.18731
G1 X99.214 Y140.909 E4.24393
G1 X99.698 Y141.352 E4.2963
G1 X100.307 Y141.774 E4.35545
G1 X100.905 Y142.088 E4.40936
G1 X101.501 Y142.308 E4.46008
G1 X102.151 Y142.466 E4.51347
G1 X103.072 Y142.543 E4.58725
G1 X155.342 Y142.52 E8.75966
G1 X155.97 Y142.48 E8.8099
G1 X156.617 Y142.357 E8.86247
G1 X157.268 Y142.149 E8.91702
G1 X157.908 Y141.85 E8.97341
G1 X158.501 Y141.47 E9.02963
G1 X159.043 Y141.016 E9.08607
G1 X159.494 Y140.526 E9.13923
G1 X159.898 Y139.952 E9.19526
G1 X160.2 Y139.392 E9.24604
G1 X160.434 Y138.793 E9.29738
G1 X160.618 Y138.044 E9.35894
G1 X160.692 Y137.405 E9.41029
G1 X160.684 Y136.756 E9.4621
G1 X160.597 Y136.087 E9.51596
G1 X160.407 Y135.368 E9.57532
G1 X160.167 Y134.78 E9.62601
G1 X159.816 Y134.16 E9.68289
G1 X159.213 Y133.405 E9.76002
G1 X117.717 Y90.298 E14.53624
G1 X117.244 Y89.861 E14.58765
G1 X116.621 Y89.426 E14.6483
G1 X116.025 Y89.113 E14.70204
G1 X115.417 Y88.885 E14.75387
G1 X114.767 Y88.73 E14.80721
G1 X114.087 Y88.652 E14.86185
G1 X113.379 Y88.665 E14.91837
G1 X112.722 Y88.76 E14.97136
G1 X112.054 Y88.947 E15.02673
G1 X111.432 Y89.204 E15.08046
G1 X110.854 Y89.537 E15.1337
G1 X110.254 Y89.995 E15.19396
G1 F1500 E8.69396
G0 F9000 X93.696 Y71.465
G1 F1500 E15.19396
G1 F1125 X93.693 Y70.796 E15.24736
G1 X93.783 Y70.155 E15.29903
G1 X93.879 Y69.673 E15.33826
G1 X94.049 Y69.007 E15.39313
G1 X94.264 Y68.484 E15.43827
G1 X94.426 Y68.167 E15.46668
G1 X94.786 Y67.567 E15.52254
G1 X95.002 Y67.245 E15.55349
G1 X95.208 Y66.974 E15.58066
G1 X95.774 Y66.361 E15.64726
G1 X96.124 Y66.026 E15.68594
G1 X96.689 Y65.55 E15.74491
G1 X97.08 Y65.259 E15.78382
G1 X97.856 Y64.746 E15.85807
G1 X98.696 Y64.26 E15.93554
G1 X99.89 Y63.653 E16.04246
G1 X100.866 Y63.21 E16.12802
G1 X101.673 Y62.864 E16.19811
G1 X102.673 Y62.45 E16.2845
G1 X103.25 Y62.173 E16.33559
G1 X103.946 Y61.801 E16.39859
G1 X104.487 Y61.569 E16.44557
G1 X104.98 Y61.393 E16.48736
G1 X105.483 Y61.247 E16.52917
G1 X105.813 Y61.169 E16.55624
G1 X106.533 Y61.045 E16.61456
G1 X107.131 Y60.976 E16.66261
G1 X107.143 Y60.988 E16.66396
G1 X107.824 Y60.977 E16.71833
G1 X108.236 Y60.992 E16.75124
G1 X108.804 Y61.049 E16.79681
G1 X109.508 Y61.176 E16.85391
G1 X109.606 Y61.215 E16.86233
G1 X109.966 Y61.274 E16.89145
G1 X110.682 Y61.523 E16.95196
G1 X111.11 Y61.699 E16.9889
G1 X111.546 Y61.903 E17.02733
G1 X111.872 Y62.074 E17.05671
G1 X112.259 Y62.305 E17.09269
G1 X112.703 Y62.61 E17.13569
G1 X112.965 Y62.804 E17.16171
G1 X113.526 Y63.28 E17.22044
G1 X113.994 Y63.753 E17.27356
G1 X114.298 Y64.102 E17.3105
G1 X114.658 Y64.569 E17.35757
G1 X114.983 Y65.063 E17.40477
G1 X115.332 Y65.665 E17.46032
G1 X115.54 Y66.119 E17.50018
G1 X115.804 Y66.788 E17.55759
G1 X115.872 Y67.015 E17.57651
G1 X116.113 Y67.674 E17.63252
G1 X116.433 Y68.286 E17.68765
G1 X116.816 Y68.836 E17.74114
G1 X117.155 Y69.226 E17.78239
G1 X175.531 Y129.854 E24.5007
G1 X176.065 Y130.34 E24.55833
G1 X176.619 Y130.728 E24.61232
G1 X177.169 Y131.018 E24.66196
G1 X177.558 Y131.182 E24.69565
G1 X177.925 Y131.322 E24.72701
G1 X178.697 Y131.545 E24.79115
G1 X179.439 Y131.712 E24.85186
G1 X181.249 Y132.248 E25.00255
G1 X181.679 Y132.406 E25.03912
G1 X182.131 Y132.614 E25.07883
G1 X182.441 Y132.804 E25.10786
G1 X182.707 Y132.987 E25.13363
G1 X182.922 Y133.155 E25.15541
G1 X183.123 Y133.338 E25.17711
G1 X183.329 Y133.544 E25.20036
G1 X183.515 Y133.763 E25.2233
G1 X183.711 Y134.022 E25.24923
G1 X183.864 Y134.245 E25.27081
G1 X184.006 Y134.496 E25.29383
G1 X184.136 Y134.756 E25.31704
G1 X184.254 Y135.035 E25.34122
G1 X184.349 Y135.314 E25.36475
G1 X184.426 Y135.598 E25.38823
G1 X184.481 Y135.861 E25.40968
G1 X184.522 Y136.156 E25.43346
G1 X184.559 Y136.6 E25.46902
G1 X184.541 Y136.986 E25.49987
G1 X184.5 Y137.314 E25.52625
G1 X184.382 Y137.939 E25.57703
G1 X179.307 Y155.617 E27.04516
G1 X179.314 Y155.627 E27.04613
G1 X179.082 Y156.276 E27.10115
G1 X178.879 Y156.694 E27.13824
G1 X178.714 Y156.973 E27.16412
G1 X178.556 Y157.203 E27.18639
G1 X178.37 Y157.441 E27.2105
G1 X178.206 Y157.631 E27.23054
G1 X177.874 Y157.963 E27.26802
G1 X177.545 Y158.219 E27.30129
G1 X177.299 Y158.385 E27.32498
G1 X177.041 Y158.536 E27.34884
G1 X176.627 Y158.743 E27.38579
G1 X176.254 Y158.874 E27.41735
G1 X175.968 Y158.956 E27.4411
G1 X175.681 Y159.022 E27.46461
G1 X175.411 Y159.062 E27.48639
G1 X175.107 Y159.092 E27.51078
G1 X174.819 Y159.099 E27.53378
G1 X174.517 Y159.088 E27.5579
G1 X174.239 Y159.059 E27.58021
G1 X173.935 Y159.007 E27.60483
G1 X173.644 Y158.941 E27.62865
G1 X173.188 Y158.8 E27.66675
G1 X171.453 Y158.171 E27.81406
G1 X170.82 Y157.987 E27.86668
G1 X170.084 Y157.844 E27.92653
G1 X169.795 Y157.777 E27.95021
G1 X167.98 Y157.243 E28.10124
G1 X167.338 Y157.013 E28.15567
G1 X166.931 Y156.806 E28.19212
G1 X166.71 Y156.673 E28.21271
G1 X166.466 Y156.511 E28.23609
G1 X165.86 Y156.152 E28.29231
G1 X165.249 Y155.89 E28.34538
G1 X164.621 Y155.706 E28.39762
G1 X163.951 Y155.598 E28.45179
G1 X163.44 Y155.572 E28.49264
G1 X95.808 Y155.567 E33.89131
G1 X95.127 Y155.61 E33.94578
G1 X94.462 Y155.742 E33.9999
G1 X93.819 Y155.948 E34.0538
G1 X93.219 Y156.235 E34.10689
G1 X92.661 Y156.586 E34.15951
G1 X91.997 Y157.158 E34.22947
G1 X91.705 Y157.449 E34.26238
G1 X91.292 Y157.803 E34.3058
G1 X90.888 Y158.077 E34.34476
G1 X90.509 Y158.269 E34.37868
G1 X90.255 Y158.38 E34.4008
G1 X89.983 Y158.479 E34.42391
G1 X89.689 Y158.565 E34.44836
G1 X89.411 Y158.631 E34.47117
G1 X89.151 Y158.671 E34.49217
G1 X88.843 Y158.704 E34.5169
G1 X88.42 Y158.719 E34.55068
G1 X87.981 Y158.679 E34.58587
G1 X87.362 Y158.572 E34.63601
G1 X85.623 Y158.152 E34.77882
G1 X83.406 Y157.563 E34.96193
G1 X83.005 Y157.405 E34.99633
G1 X82.742 Y157.279 E35.01961
G1 X82.38 Y157.082 E35.05251
G1 X81.999 Y156.8 E35.09035
G1 X81.791 Y156.629 E35.11184
G1 X81.567 Y156.412 E35.13674
G1 X81.395 Y156.225 E35.15702
G1 X81.198 Y155.983 E35.18193
G1 X81.02 Y155.739 E35.20604
G1 X80.882 Y155.521 E35.22663
G1 X80.641 Y155.075 E35.2671
G1 X80.648 Y155.064 E35.26814
G1 X80.506 Y154.705 E35.29896
G1 X80.39 Y154.336 E35.32983
G1 X80.275 Y153.702 E35.38127
G1 X80.257 Y153.32 E35.41179
G1 X80.26 Y153.013 E35.4363
G1 X80.282 Y152.711 E35.46047
G1 X80.37 Y152.097 E35.50999
G1 X80.381 Y152.088 E35.51112
G1 X81.726 Y146.622 E35.96046
G1 X81.714 Y146.607 E35.96199
G1 X81.791 Y146.184 E35.99631
G1 X81.82 Y145.522 E36.0492
G1 X81.773 Y144.838 E36.10393
G1 X81.632 Y144.161 E36.15913
G1 X81.524 Y143.836 E36.18647
G1 X81.552 Y143.802 E36.18999
G1 X81.111 Y142.905 E36.26977
G1 X80.885 Y142.537 E36.30425
G1 X79.544 Y140.538 E36.49639
G1 X78.536 Y138.926 E36.64816
G1 X77.683 Y137.503 E36.78059
G1 X76.818 Y135.948 E36.92263
G1 X76.379 Y135.079 E37.00035
G1 X76.124 Y134.548 E37.04737
G1 X75.723 Y133.634 E37.12704
G1 X75.732 Y133.621 E37.1283
G1 X75.543 Y133.197 E37.16536
G1 X75.555 Y133.181 E37.16696
G1 X75.442 Y132.855 E37.1945
G1 X75.283 Y132.3 E37.24058
G1 X75.116 Y131.628 E37.29586
G1 X75.022 Y131.099 E37.33874
G1 X74.986 Y130.563 E37.38163
G1 X75.073 Y129.679 E37.45253
G1 X75.142 Y129.244 E37.48769
G1 X75.275 Y128.664 E37.53519
G1 X75.368 Y128.364 E37.56026
G1 X75.492 Y128.021 E37.58938
G1 X75.704 Y127.611 E37.62622
G1 X75.868 Y127.349 E37.65089
G1 X76.24 Y126.839 E37.70128
G1 X76.723 Y126.263 E37.76129
G1 X76.954 Y126.021 E37.78799
G1 X77.358 Y125.644 E37.8321
G1 X78.281 Y124.992 E37.92231
G1 X78.76 Y124.539 E37.97493
G1 X79.216 Y123.988 E38.03203
G1 X79.575 Y123.422 E38.08553
G1 X79.865 Y122.799 E38.14038
G1 X80.064 Y122.184 E38.19198
G1 X80.193 Y121.508 E38.24692
G1 X80.236 Y120.8 E38.30354
G1 X80.204 Y120.231 E38.34903
G1 X80.187 Y120.073 E38.36171
G1 X80.173 Y119.776 E38.38545
G1 X80.176 Y119.523 E38.40564
G1 X80.202 Y119.182 E38.43294
G1 X80.242 Y118.924 E38.45378
G1 X80.309 Y118.599 E38.48027
G1 X80.383 Y118.339 E38.50185
G1 X80.47 Y118.079 E38.52374
G1 X80.589 Y117.802 E38.5478
G1 X80.714 Y117.545 E38.57061
G1 X80.864 Y117.289 E38.5943
G1 X81.019 Y117.055 E38.6167
G1 X81.192 Y116.824 E38.63974
G1 X81.387 Y116.6 E38.66345
G1 X81.997 Y115.973 E38.73328
G1 X82.465 Y115.401 E38.79227
G1 X82.643 Y115.212 E38.813
G1 X82.885 Y114.985 E38.83948
G1 X83.088 Y114.819 E38.86041
G1 X83.517 Y114.525 E38.90193
G1 X84.051 Y114.14 E38.95448
G1 X84.581 Y113.637 E39.0128
G1 X85.009 Y113.119 E39.06644
G1 X85.363 Y112.55 E39.11993
G1 X85.658 Y111.917 E39.17568
G1 X85.892 Y111.167 E39.2384
G1 X85.945 Y110.923 E39.25833
G1 X86.059 Y110.535 E39.29061
G1 X86.251 Y110.094 E39.329
G1 X86.505 Y109.636 E39.37081
G1 X86.704 Y109.35 E39.39862
G1 X87.079 Y108.891 E39.44593
G1 X88.816 Y107.01 E39.65031
G1 X89.414 Y106.382 E39.71953
G1 X90.899 Y104.863 E39.8891
G1 X91.491 Y104.283 E39.95526
G1 X91.919 Y103.803 E40.00659
G1 X92.337 Y103.194 E40.06556
G1 X92.629 Y102.622 E40.11682
G1 X92.919 Y101.786 E40.18745
G1 X97.957 Y81.537 E41.85309
G1 X98.078 Y80.885 E41.90603
G1 X98.116 Y80.149 E41.96486
G1 X98.068 Y79.483 E42.01816
G1 X97.924 Y78.799 E42.07396
G1 X97.709 Y78.168 E42.12717
G1 X97.424 Y77.584 E42.17904
G1 X97.027 Y76.978 E42.23687
G1 X96.592 Y76.466 E42.2905
G1 X95.771 Y75.74 E42.37798
G1 X95.379 Y75.359 E42.42162
G1 X95.061 Y75.024 E42.45849
G1 X94.694 Y74.549 E42.5064
G1 X94.552 Y74.327 E42.52744
G1 X94.316 Y73.9 E42.56639
G1 X94.321 Y73.893 E42.56707
G1 X94.178 Y73.532 E42.59807
G1 X94.014 Y72.992 E42.64312
G1 X93.815 Y72.205 E42.70792
G1 X93.74 Y71.809 E42.74009
G1 X93.696 Y71.465 E42.76777
G1 F1500 E36.26777
G0 F9000 X92.644 Y71.53
G0 X65.731 Y71.037
G0 X49.623 Y72.04
G0 X40.221 Y73.272
G0 X38.881 Y73.656
G0 X38.908 Y74.813
G1 F1500 E42.76777
G1 F1125 X39.469 Y74.559 E42.81693
G1 X39.881 Y74.436 E42.85125
G1 X40.525 Y74.295 E42.90388
G1 X49.689 Y73.103 E43.64155
G1 X50.3 Y73.056 E43.69046
G1 X50.563 Y73.056 E43.71146
G1 X50.977 Y73.075 E43.74454
G1 X51.559 Y73.185 E43.79182
G1 X52.048 Y73.336 E43.83267
G1 X52.77 Y73.6 E43.89404
G1 X53.424 Y73.816 E43.94902
G1 X54.108 Y73.951 E44.00467
G1 X54.767 Y73.992 E44.05738
G1 X55.472 Y73.953 E44.11374
G1 X56.224 Y73.8 E44.175
G1 X56.763 Y73.651 E44.21964
G1 X58.43 Y73.235 E44.35678
G1 X59.226 Y73.056 E44.42191
G1 X59.807 Y72.945 E44.46913
G1 X60.729 Y72.721 E44.54487
G1 X62.602 Y72.412 E44.6964
G1 X64.072 Y72.226 E44.81467
G1 X64.973 Y72.144 E44.88689
G1 X65.993 Y72.092 E44.96842
G1 X66.581 Y72.085 E45.01536
G1 X67.418 Y72.108 E45.0822
G1 X68.341 Y72.204 E45.15627
G1 X68.765 Y72.281 E45.19067
G1 X69.227 Y72.383 E45.22844
G1 X70.024 Y72.64 E45.29529
G1 X70.503 Y72.841 E45.33675
G1 X70.952 Y73.056 E45.37649
G1 X71.529 Y73.443 E45.43195
G1 X71.952 Y73.81 E45.47665
G1 X72.408 Y74.259 E45.52774
G1 X72.663 Y74.536 E45.55779
G1 X73.001 Y74.984 E45.60259
G1 X73.263 Y75.423 E45.6434
G1 X73.513 Y76.002 E45.69374
G1 X73.743 Y76.717 E45.75369
G1 X73.881 Y77.241 E45.79695
G1 X73.966 Y77.682 E45.8328
G1 X73.987 Y78.054 E45.86254
G1 X73.984 Y78.358 E45.88681
G1 X73.965 Y78.692 E45.91351
G1 X73.876 Y79.232 E45.9572
G1 X73.795 Y79.566 E45.98463
G1 X73.544 Y80.334 E46.04913
G1 X73.4 Y80.688 E46.07964
G1 X73.278 Y80.951 E46.10278
G1 X73.086 Y81.302 E46.13471
G1 X72.799 Y81.72 E46.17519
G1 X72.404 Y82.207 E46.22524
G1 X72.142 Y82.495 E46.25632
G1 X71.96 Y82.677 E46.27687
G1 X71.411 Y83.146 E46.33451
G1 X70.985 Y83.46 E46.37675
G1 X70.589 Y83.726 E46.41483
G1 X70.214 Y83.951 E46.44974
G1 X69.515 Y84.323 E46.51295
G1 X69.072 Y84.536 E46.55218
G1 X68.201 Y84.918 E46.6281
G1 X68.192 Y84.933 E46.6295
G1 X67.222 Y85.3 E46.71228
G1 X66.614 Y85.514 E46.76374
G1 X66.015 Y85.767 E46.81564
G1 X65.386 Y86.126 E46.87345
G1 X64.83 Y86.555 E46.92951
G1 X64.359 Y87.024 E46.98257
G1 X63.948 Y87.547 E47.03567
G1 X63.581 Y88.165 E47.09304
G1 X63.321 Y88.765 E47.14524
G1 X63.127 Y89.421 E47.19984
G1 X63.02 Y90.088 E47.25377
G1 X62.996 Y90.789 E47.30976
G1 X63.059 Y91.445 E47.36236
G1 X63.209 Y92.113 E47.41701
G1 X63.45 Y92.783 E47.47385
G1 X63.661 Y93.21 E47.51187
G1 X64.22 Y94.225 E47.60437
G1 X64.784 Y95.381 E47.70704
G1 X65.062 Y96.015 E47.7623
G1 X65.356 Y96.754 E47.82579
G1 X65.474 Y97.104 E47.85527
G1 X65.613 Y97.585 E47.89524
G1 X65.803 Y98.341 E47.95746
G1 X65.915 Y99.101 E48.01878
G1 X65.912 Y99.593 E48.05806
G1 X65.889 Y99.926 E48.0847
G1 X65.853 Y100.184 E48.1055
G1 X65.761 Y100.635 E48.14224
G1 X65.627 Y101.169 E48.18619
G1 X65.467 Y101.664 E48.22771
G1 X65.352 Y101.954 E48.25262
G1 X65.226 Y102.227 E48.27662
G1 X65.096 Y102.463 E48.29812
G1 X64.86 Y102.832 E48.33309
G1 X64.591 Y103.168 E48.36745
G1 X64.224 Y103.597 E48.41251
G1 X63.847 Y103.983 E48.45558
G1 X63.626 Y104.182 E48.47932
G1 X63.418 Y104.346 E48.50046
G1 X63.167 Y104.519 E48.5248
G1 X62.911 Y104.671 E48.54856
G1 X62.678 Y104.795 E48.56963
G1 X62.414 Y104.908 E48.59256
G1 X62.116 Y105.02 E48.61797
G1 X61.613 Y105.171 E48.65989
G1 X60.384 Y105.321 E48.75872
G1 X59.835 Y105.351 E48.80261
G1 X59.255 Y105.321 E48.84897
G1 X58.805 Y105.253 E48.8853
G1 X58.154 Y105.053 E48.93966
G1 X57.888 Y104.94 E48.96273
G1 X57.464 Y104.728 E49.00057
G1 X56.781 Y104.323 E49.06396
G1 X56.185 Y103.907 E49.12198
G1 X55.686 Y103.504 E49.17318
G1 X55.12 Y102.986 E49.23442
G1 X54.768 Y102.637 E49.27399
G1 X54.055 Y101.869 E49.35764
G1 X53.567 Y101.303 E49.4173
G1 X52.301 Y99.751 E49.57717
G1 X51.988 Y99.323 E49.6195
G1 X51.508 Y98.555 E49.69179
G1 X51.032 Y97.904 E49.75617
G1 X50.573 Y97.166 E49.82554
G1 X50.525 Y97.112 E49.83131
G1 X50.13 Y96.551 E49.88608
G1 X49.92 Y96.213 E49.91784
G1 X49.631 Y95.781 E49.95933
G1 X49.564 Y95.659 E49.97044
G1 X49.237 Y95.199 E50.01549
G1 X49.05 Y94.878 E50.04515
G1 X48.312 Y93.826 E50.14773
G1 X48.087 Y93.453 E50.1825
G1 X47.836 Y93.095 E50.2174
G1 X47.79 Y93.013 E50.2249
G1 X47.415 Y92.488 E50.27641
G1 X47.235 Y92.189 E50.30426
G1 X46.699 Y91.432 E50.3783
G1 X46.254 Y90.883 E50.43472
G1 X45.778 Y90.423 E50.48756
G1 X45.259 Y90.036 E50.53923
G1 X44.655 Y89.69 E50.5948
G1 X44.051 Y89.438 E50.64704
G1 X43.329 Y89.241 E50.70678
G1 X42.985 Y89.185 E50.7346
G1 X40.629 Y88.877 E50.92427
G1 X40.251 Y88.802 E50.95503
G1 X39.958 Y88.724 E50.97923
G1 X39.701 Y88.639 E51.00084
G1 X39.433 Y88.533 E51.02385
G1 X39.027 Y88.339 E51.05977
G1 X38.349 Y87.966 E51.12154
G1 X37.575 Y87.445 E51.19601
G1 X37.122 Y87.056 E51.24368
G1 X36.646 Y86.595 E51.29657
G1 X36.225 Y86.087 E51.34924
G1 X35.734 Y85.358 E51.4194
G1 X34.774 Y83.627 E51.5774
G1 X34.786 Y83.609 E51.57913
G1 X34.592 Y83.216 E51.61411
G1 X34.409 Y82.618 E51.66403
G1 X34.335 Y82.251 E51.69392
G1 X34.288 Y81.883 E51.72353
G1 X34.281 Y81.362 E51.76512
G1 X34.314 Y80.964 E51.797
G1 X34.406 Y80.44 E51.83947
G1 X34.558 Y79.958 E51.87981
G1 X34.685 Y79.635 E51.90752
G1 X34.68 Y79.628 E51.90821
G1 X34.937 Y79.169 E51.9502
