;FLAVOR:Marlin
;TIME:870
;Filament used: 0.301551m
;Layer height: 0.2
;MINX:56.303
;MINY:81.751
;MINZ:0.24
;MAXX:89.218
;MAXY:109.215
;MAXZ:15.49
;TARGET_MACHINE.NAME:Creality Ender-3 Pro
;Generated with Cura_SteamEngine 5.7.1
M82 ;absolute extrusion mode
; Ender 3 Custom Start G-code
G92 E0 ; Reset Extruder
G28 ; Home all axes
G1 Z5.0 F3000 ; Move Z Axis up a bit during heating to not damage bed
M104 S175 ; Start heating up the nozzle most of the way
M190 S60 ; Start heating the bed, wait until target temperature reached
M109 S216.0 ; Finish heating the nozzle
G1 Z2.0 F3000 ; Move Z Axis up little to prevent scratching of Heat Bed
G1 X0.1 Y20 Z0.3 F5000.0 ; Move to start position
G1 X0.1 Y200.0 Z0.3 F1500.0 E15 ; Draw the first line
G1 X0.4 Y200.0 Z0.3 F5000.0 ; Move to side a little
G1 X0.4 Y20 Z0.3 F1500.0 E30 ; Draw the second line
G92 E0 ; Reset Extruder
G1 Z2.0 F3000 ; Move Z Axis up little to prevent scratching of Heat Bed
G1 X5 Y20 Z0.3 F5000.0 ; Move over to prevent blob squish
G92 E0
G92 E0
G1 F1500 E-6.5
;LAYER_COUNT:72
;LAYER:-6
M107
G0 F9000 X61.18 Y85.125 Z0.24
;TYPE:SUPPORT-INTERFACE
G1 F1500 E0
G1 F1125 X61.546 Y84.897 E0.03442
G1 X62.082 Y84.649 E0.08156
G1 X62.509 Y84.524 E0.11708
G1 X63.158 Y84.379 E0.17016
G1 X69.936 Y83.508 E0.71566
G1 X70.411 Y83.505 E0.75358
G1 X70.67 Y83.523 E0.7743
G1 X71.04 Y83.574 E0.80412
G1 X71.609 Y83.701 E0.85066
G1 X71.931 Y83.786 E0.87724
G1 X72.55 Y83.912 E0.92766
G1 X73.253 Y83.964 E0.98393
G1 X73.961 Y83.929 E1.04052
G1 X74.565 Y83.818 E1.08954
G1 X74.97 Y83.73 E1.12262
G1 X75.012 Y83.772 E1.12736
G1 X75.104 Y83.764 E1.13474
G1 X75.391 Y83.636 E1.15982
G1 X76.277 Y83.392 E1.23318
G1 X78.221 Y83.056 E1.39066
G1 X79.553 Y82.878 E1.49793
G1 X80.08 Y82.832 E1.54016
G1 X80.779 Y82.796 E1.59603
G1 X81.35 Y82.785 E1.64161
G1 X81.926 Y82.8 E1.68761
G1 X82.887 Y82.893 E1.76468
G1 X83.301 Y82.968 E1.79826
G1 X83.652 Y83.053 E1.82709
G1 X84.265 Y83.262 E1.87879
G1 X84.746 Y83.465 E1.92046
G1 X85.102 Y83.639 E1.9521
G1 X85.435 Y83.826 E1.98258
G1 X85.803 Y84.094 E2.01892
G1 X86.217 Y84.451 E2.06256
G1 X86.621 Y84.847 E2.10772
G1 X86.861 Y85.107 E2.13596
G1 X87.032 Y85.317 E2.15758
G1 X87.221 Y85.588 E2.18395
G1 X87.356 Y85.808 E2.20456
G1 X87.504 Y86.084 E2.22956
G1 X87.628 Y86.366 E2.25415
G1 X87.791 Y86.812 E2.29205
G1 X87.968 Y87.435 E2.34375
G1 X88.082 Y87.947 E2.38562
G1 X88.126 Y88.266 E2.41133
G1 X88.155 Y88.8 E2.45401
G1 X88.141 Y89.096 E2.47767
G1 X88.097 Y89.442 E2.50551
G1 X87.956 Y90.123 E2.56102
G1 X87.645 Y91.109 E2.64355
G1 X87.406 Y91.643 E2.69025
G1 X87.167 Y92.035 E2.7269
G1 X87.022 Y92.249 E2.74754
G1 X86.738 Y92.599 E2.78352
G1 X86.378 Y92.959 E2.82416
G1 X85.63 Y93.578 E2.90166
G1 X84.855 Y94.097 E2.97611
G1 X84.383 Y94.357 E3.01913
G1 X83.766 Y94.754 E3.07769
G1 X83.298 Y95.138 E3.12602
G1 X82.812 Y95.652 E3.18248
G1 X82.395 Y96.225 E3.23905
G1 X82.074 Y96.812 E3.29246
G1 X81.832 Y97.432 E3.34559
G1 X81.662 Y98.095 E3.40022
G1 X81.576 Y98.784 E3.45565
G1 X81.579 Y99.493 E3.51224
G1 X81.659 Y100.101 E3.56119
G1 X81.75 Y100.505 E3.59425
G1 X81.887 Y101.009 E3.63594
G1 X81.961 Y101.544 E3.67906
G1 X81.976 Y101.926 E3.70957
G1 X81.983 Y102.733 E3.77399
G1 X81.961 Y103.243 E3.81474
G1 X81.867 Y103.836 E3.86267
G1 X81.806 Y104.084 E3.88305
G1 X81.71 Y104.393 E3.90888
G1 X81.613 Y104.636 E3.92977
G1 X81.475 Y104.93 E3.95569
G1 X81.348 Y105.163 E3.97688
G1 X81.085 Y105.57 E4.01556
G1 X80.699 Y106.034 E4.06374
G1 X80.381 Y106.337 E4.0988
G1 X79.607 Y107.02 E4.1812
G1 X79.291 Y107.269 E4.21331
G1 X79.06 Y107.427 E4.23565
G1 X78.822 Y107.569 E4.25778
G1 X78.544 Y107.71 E4.28266
G1 X78.313 Y107.812 E4.30281
G1 X78.01 Y107.923 E4.32857
G1 X77.751 Y108 E4.35014
G1 X77.437 Y108.07 E4.37582
G1 X77.15 Y108.115 E4.39901
G1 X76.889 Y108.14 E4.41994
G1 X76.429 Y108.147 E4.45666
G1 X75.86 Y108.103 E4.50222
G1 X74.879 Y107.885 E4.58244
G1 X74.866 Y107.896 E4.5838
G1 X74.327 Y107.729 E4.62884
G1 X74.011 Y107.608 E4.65585
G1 X73.359 Y107.295 E4.71358
G1 X72.96 Y107.054 E4.75079
G1 X72.42 Y106.676 E4.80341
G1 X71.849 Y106.171 E4.86426
G1 X71.393 Y105.722 E4.91534
G1 X70.647 Y104.906 E5.0036
G1 X69.711 Y103.76 E5.12171
G1 X68.941 Y102.739 E5.22379
G1 X68.689 Y102.347 E5.26099
G1 X68.267 Y101.727 E5.32085
G1 X68.105 Y101.513 E5.34228
G1 X67.902 Y101.216 E5.371
G1 X67.712 Y100.898 E5.40057
G1 X67.088 Y100.009 E5.48727
G1 X66.663 Y99.47 E5.54206
G1 X66.179 Y98.997 E5.59608
G1 X65.64 Y98.586 E5.65019
G1 X65.081 Y98.261 E5.7018
G1 X64.411 Y97.977 E5.75989
G1 X63.641 Y97.772 E5.8235
G1 X63.076 Y97.651 E5.86962
G1 X62.679 Y97.541 E5.9025
G1 X62.434 Y97.457 E5.92318
G1 X62.072 Y97.308 E5.95443
G1 X61.524 Y97.05 E6.00278
G1 X60.957 Y96.747 E6.05409
G1 X60.587 Y96.48 E6.09051
G1 X60.374 Y96.299 E6.11283
G1 X59.936 Y95.873 E6.1616
G1 X59.567 Y95.47 E6.20522
G1 X59.227 Y95.053 E6.24817
G1 X59.063 Y94.823 E6.27071
G1 X58.824 Y94.428 E6.30757
G1 X57.948 Y92.816 E6.45402
G1 X57.781 Y92.474 E6.4844
G1 X57.648 Y92.157 E6.51184
G1 X57.541 Y91.822 E6.53991
G1 X57.436 Y91.405 E6.57424
G1 X57.365 Y90.798 E6.62302
G1 X57.368 Y90.394 E6.65527
G1 X57.387 Y90.092 E6.67943
G1 X57.423 Y89.831 E6.70046
G1 X57.479 Y89.549 E6.72341
G1 X57.564 Y89.22 E6.75053
G1 X57.647 Y88.977 E6.77103
G1 X57.762 Y88.695 E6.79534
G1 X57.898 Y88.413 E6.82033
G1 X58.13 Y88.018 E6.8569
G1 X58.362 Y87.705 E6.888
G1 X58.562 Y87.468 E6.91275
G1 X58.736 Y87.287 E6.93279
G1 X58.957 Y87.084 E6.95675
G1 X59.618 Y86.537 E7.02524
G1 X60.725 Y85.473 E7.1478
G1 X60.952 Y85.29 E7.17107
G1 X61.18 Y85.125 E7.19354
G0 F9000 X60.936 Y85.826
G1 F1125 X80.617 Y105.507 E9.4153
G1 F1500 E2.9153
G0 F9000 X79.462 Y106.615
G1 F1500 E9.4153
G1 F1125 X59.775 Y86.927 E11.6378
G1 F1500 E5.1378
G0 F9000 X58.616 Y88.032
G1 F1500 E11.6378
G1 F1125 X78.062 Y107.477 E13.83297
G1 F1500 E7.33297
G0 F9000 X76.037 Y107.715
G1 F1500 E13.83297
G1 F1125 X57.887 Y89.566 E15.88185
G1 F1500 E9.38185
G0 F9000 X57.998 Y91.939
G1 F1500 E15.88185
G1 F1125 X63.362 Y97.303 E16.48738
G1 F1500 E9.98738
G0 F9000 X62.815 Y98.683
G0 X61.61 Y98.269
G0 X60.525 Y97.725
G0 X59.641 Y97.074
G0 X58.382 Y95.703
G0 X57.888 Y94.932
G0 X56.749 Y92.768
G0 X56.422 Y91.733
G0 X56.303 Y90.687
G0 X56.379 Y89.633
G0 X56.652 Y88.599
G0 X57.131 Y87.611
G0 X57.764 Y86.767
G0 X60.308 Y84.442
G0 X61.044 Y83.985
G0 X61.806 Y83.627
G0 X62.358 Y84.986
G1 F1500 E16.48738
G1 F1125 X81.404 Y104.031 E18.6374
G1 F1500 E12.1374
G0 F9000 X81.577 Y101.941
G1 F1500 E18.6374
G1 F1125 X64.274 Y84.639 E20.59066
G1 F1500 E14.09066
G0 F9000 X66.279 Y84.381
G1 F1500 E20.59066
G1 F1125 X81.177 Y99.278 E22.27242
G1 F1500 E15.77242
G0 F9000 X81.459 Y97.299
G1 F1500 E22.27242
G1 F1125 X68.285 Y84.124 E23.75967
G1 F1500 E17.25967
G0 F9000 X70.329 Y83.905
G1 F1500 E23.75967
G1 F1125 X82.217 Y95.794 E25.10174
G1 F1500 E18.60174
G0 F9000 X83.304 Y94.618
G1 F1500 E25.10174
G1 F1125 X73.036 Y84.349 E26.26094
G1 F1500 E19.76094
G0 F9000 X75.112 Y84.163
G1 F1500 E26.26094
G1 F1125 X84.68 Y93.731 E27.34106
G1 F1500 E20.84106
G0 F9000 X85.98 Y92.768
G1 F1500 E27.34106
G1 F1125 X76.902 Y83.69 E28.36586
G1 F1500 E21.86586
G0 F9000 X78.851 Y83.376
G1 F1500 E28.36586
G1 F1125 X87.006 Y91.531 E29.28647
G1 F1500 E22.78647
G0 F9000 X87.601 Y89.864
G1 F1500 E29.28647
G1 F1125 X80.93 Y83.193 E30.03955
G1 F1500 E23.53955
G0 F9000 X83.405 Y83.405
G1 F1500 E30.03955
G1 F1125 X87.594 Y87.594 E30.51244
M104 S216
G1 F1500 E24.01244
G0 F300 X87.594 Y87.594 Z0.54
G0 F9000 X89.133 Y87.771
G0 X89.218 Y88.87
G0 X89.026 Y90.221
G0 X88.564 Y91.671
G0 X88.058 Y92.626
G0 X87.387 Y93.459
G0 X86.384 Y94.311
G0 X85.365 Y95.033
G0 X84.17 Y94.021
;TIME_ELAPSED:36.963093
;LAYER:-5
;TYPE:SUPPORT
G1 F1500 E30.51244
G1 F1125 X87.29 Y90.901 E30.95271
G1 X87.218 Y91.094 E30.97326
G1 X87.105 Y91.345 E31.00073
G1 X86.98 Y91.584 E31.02764
G1 X86.784 Y91.903 E31.065
G1 X86.523 Y92.232 E31.1069
G1 X86.243 Y92.54 E31.14843
G1 X85.978 Y92.775 E31.18377
G1 X85.395 Y93.254 E31.25906
G1 X84.718 Y93.716 E31.34084
G1 X83.243 Y94.536 E31.50923
G1 X83.316 Y94.608 E31.51946
G1 X83.026 Y94.847 E31.55696
G1 X82.521 Y95.378 E31.63008
G1 X82.06 Y96.011 E31.70822
G1 F1500 E25.20822
G0 F9000 X83.31 Y96.775
G0 X82.975 Y103.721
G0 X81.469 Y103.793
G1 F1500 E31.70822
G1 F1125 X77.647 Y107.615 E32.24754
G1 X78.022 Y107.504 E32.28656
G1 X78.498 Y107.299 E32.33828
G1 X78.965 Y107.019 E32.39261
G1 X79.361 Y106.708 E32.44285
G1 X80.115 Y106.042 E32.54323
G1 X80.447 Y105.723 E32.58917
G1 X80.71 Y105.403 E32.6305
G1 X80.859 Y105.199 E32.65571
G1 X80.996 Y104.982 E32.68131
G1 X81.13 Y104.733 E32.70953
G1 X81.298 Y104.372 E32.74926
G1 X81.416 Y104.004 E32.78782
G1 X81.479 Y103.758 E32.81316
G1 X81.555 Y103.338 E32.85575
G1 X81.586 Y102.714 E32.91809
G1 X81.582 Y102.266 E32.96279
G1 X76.103 Y107.745 E33.73594
G1 X74.943 Y107.491 E33.85442
G1 X81.462 Y100.972 E34.77432
G1 X81.271 Y100.189 E34.85474
G1 X81.219 Y99.8 E34.8939
G1 X73.904 Y107.115 E35.92613
G1 X73.618 Y106.977 E35.95781
G1 X73.085 Y106.52 E36.02787
G1 X81.225 Y98.38 E37.17651
G1 X81.271 Y98.007 E37.21401
G1 X81.448 Y97.318 E37.28499
G1 X81.716 Y96.637 E37.35802
G1 X81.913 Y96.278 E37.39888
G1 X72.221 Y105.97 E38.76652
G1 X71.502 Y105.274 E38.86637
G1 X87.745 Y89.032 E41.15836
G1 X87.762 Y88.725 E41.18904
G1 X87.731 Y88.312 E41.23037
G1 X87.694 Y88.052 E41.25657
G1 X87.626 Y87.736 E41.28882
G1 X70.846 Y104.517 E43.65673
G1 X70.209 Y103.739 E43.75706
G1 X87.313 Y86.635 E46.17062
G1 X87.146 Y86.258 E46.21177
G1 X87.022 Y86.024 E46.23819
G1 X86.821 Y85.713 E46.27514
G1 X69.593 Y102.941 E48.7062
G1 X69.317 Y102.576 E48.75186
G1 X69.089 Y102.031 E48.8108
G1 X86.164 Y84.956 E51.22027
G1 X85.814 Y84.628 E51.26813
G1 X85.417 Y84.288 E51.32029
G1 X68.43 Y101.275 E53.71734
G1 X68.23 Y100.986 E53.7524
G1 X68.059 Y100.7 E53.78565
G1 X67.867 Y100.425 E53.81912
G1 X84.497 Y83.794 E56.16586
G1 X84.115 Y83.635 E56.20715
G1 X83.46 Y83.417 E56.27603
G1 X67.276 Y99.602 E58.55984
G1 X66.947 Y99.19 E58.61244
G1 X66.607 Y98.856 E58.66
G1 X82.237 Y83.226 E60.86556
G1 X81.901 Y83.201 E60.89918
G1 X81.351 Y83.186 E60.95408
G1 X81.089 Y83.192 E60.98023
G1 X81.089 Y83.354 E60.9964
G1 X80.748 Y83.301 E61.03083
G1 X65.82 Y98.228 E63.13726
G1 X65.243 Y97.892 E63.20388
G1 X64.891 Y97.743 E63.24202
G1 X79.175 Y83.459 E65.25765
G1 X78.555 Y83.736 E65.32541
G1 X78.555 Y83.415 E65.35744
G1 X77.662 Y83.558 E65.44768
G1 X63.816 Y97.405 E67.40157
G1 X63.322 Y97.299 E67.45198
G1 X62.891 Y97.184 E67.49649
G1 X62.967 Y96.956 E67.52047
G1 X62.859 Y96.947 E67.53128
G1 X75.893 Y83.913 E69.37052
G1 X75.404 Y84.048 E69.42114
G1 X74.631 Y84.215 E69.50005
G1 X74.078 Y84.314 E69.55611
G1 X61.696 Y96.695 E71.30327
G1 X61.166 Y96.407 E71.36346
G1 X60.823 Y96.155 E71.40593
G1 X72.642 Y84.336 E73.07371
G1 X71.842 Y84.178 E73.15508
G1 X71.48 Y84.083 E73.19242
G1 X60.103 Y95.461 E74.79791
G1 X59.866 Y95.206 E74.83265
G1 X59.452 Y94.698 E74.89804
G1 X70.242 Y83.907 E76.42069
G1 X69.65 Y83.943 E76.47987
G1 X68.664 Y84.071 E76.57908
G1 X58.938 Y93.797 E77.95153
G1 X58.439 Y92.882 E78.05552
G1 X67.039 Y84.281 E79.26914
G1 X65.415 Y84.491 E79.43253
G1 X57.979 Y91.928 E80.48191
G1 X57.858 Y91.44 E80.53207
G1 X57.789 Y91.054 E80.5712
G1 X57.771 Y90.722 E80.60437
G1 X63.79 Y84.702 E81.45379
G1 X63.299 Y84.766 E81.5032
G1 X62.61 Y84.911 E81.57345
G1 X62.211 Y85.032 E81.61505
G1 X61.904 Y85.174 E81.64881
G1 X58.065 Y89.013 E82.19053
G1 X58.132 Y88.85 E82.20811
G1 X58.307 Y88.488 E82.24823
G1 X58.513 Y88.173 E82.28579
G1 X58.667 Y87.965 E82.31161
G1 X58.942 Y87.643 E82.35386
G1 X59.241 Y87.371 E82.3942
G1 X59.887 Y86.836 E82.47789
G1 X60.979 Y85.783 E82.62926
G1 X61.181 Y85.619 E82.65522
G1 X61.397 Y85.463 E82.6818
G1 X61.736 Y85.252 E82.72165
G1 F1500 E76.22165
G0 F300 X61.736 Y85.252 Z0.74
G0 F9000 X60.868 Y84.066
G0 X59.997 Y84.696
G0 X57.738 Y86.798
G0 X57.106 Y87.652
G0 X56.644 Y88.678
G0 X56.373 Y89.672
G0 X56.305 Y90.737
G0 X56.434 Y91.779
G0 X56.768 Y92.813
G0 X58.192 Y95.435
G0 X58.784 Y96.192
G0 X59.923 Y95.561
;TIME_ELAPSED:67.887862
;LAYER:-4
;TYPE:SUPPORT-INTERFACE
G1 F1500 E82.72165
G1 X60.608 Y96.246 E82.75387
G1 X60.953 Y96.498 E82.76808
G1 X61.179 Y96.642 E82.77699
G1 X61.468 Y96.799 E82.78793
G1 X61.83 Y96.937 E82.80081
G1 X61.83 Y96.975 E82.80208
G1 X61.966 Y97.038 E82.80706
G1 X58.691 Y93.764 E82.96109
G1 X58.116 Y92.708 E83.00108
G1 X58.041 Y92.548 E83.00696
G1 X62.68 Y97.187 E83.22516
G1 X62.633 Y97.324 E83.22998
G1 X63.264 Y97.491 E83.25169
G1 X63.623 Y97.564 E83.26387
G1 X57.69 Y91.631 E83.54294
G1 X57.614 Y91.212 E83.5571
G1 X57.585 Y90.961 E83.56551
G1 X64.392 Y97.767 E83.88567
G1 X64.515 Y97.801 E83.88991
G1 X65.154 Y98.072 E83.913
G1 X65.412 Y98.221 E83.9229
G1 X57.57 Y90.38 E84.29174
G1 X57.621 Y89.865 E84.30896
G1 X75.594 Y107.838 E85.15435
G1 X75.876 Y107.901 E85.16396
G1 X76.259 Y107.938 E85.17676
G1 X57.724 Y89.402 E86.04861
G1 X57.791 Y89.156 E86.05709
G1 X57.864 Y88.977 E86.06352
G1 X76.847 Y107.96 E86.95643
G1 X77.338 Y107.885 E86.97295
G1 X58.038 Y88.585 E87.88076
G1 X58.242 Y88.223 E87.89458
G1 X77.806 Y107.788 E88.81483
G1 X78.221 Y107.637 E88.82952
G1 X58.474 Y87.89 E89.75836
G1 X58.732 Y87.582 E89.77172
G1 X78.607 Y107.457 E90.70658
G1 X78.967 Y107.251 E90.72038
G1 X59.019 Y87.303 E91.65867
G1 X59.324 Y87.043 E91.672
G1 X79.296 Y107.014 E92.6114
G1 X79.606 Y106.759 E92.62475
G1 X59.634 Y86.787 E93.56417
G1 X59.93 Y86.517 E93.5775
G1 X79.907 Y106.494 E94.51715
G1 X80.206 Y106.228 E94.53046
G1 X60.218 Y86.239 E95.47066
G1 X60.506 Y85.962 E95.48395
G1 X80.497 Y105.953 E96.42427
G1 X80.764 Y105.654 E96.4376
G1 X60.794 Y85.684 E97.37693
G1 X61.103 Y85.428 E97.39027
G1 X81.008 Y105.333 E98.32654
G1 X81.223 Y104.982 E98.34023
G1 X61.442 Y85.201 E99.27067
G1 X61.806 Y84.999 E99.28452
G1 X81.411 Y104.604 E100.20668
G1 X81.486 Y104.442 E100.21261
G1 X81.565 Y104.193 E100.2213
G1 X62.203 Y84.83 E101.13206
G1 X62.632 Y84.694 E101.14702
G1 X81.685 Y103.747 E102.04322
G1 X81.761 Y103.257 E102.05971
G1 X63.094 Y84.59 E102.93775
G1 X63.595 Y84.525 E102.95455
G1 X81.786 Y102.716 E103.8102
G1 X81.781 Y102.146 E103.82916
G1 X64.096 Y84.46 E104.66103
G1 X64.597 Y84.396 E104.67783
G1 X81.756 Y101.555 E105.48494
G1 X81.706 Y101.163 E105.49808
G1 X81.649 Y100.882 E105.50762
G1 X65.098 Y84.331 E106.28613
G1 X65.598 Y84.266 E106.3029
G1 X81.466 Y100.133 E107.04925
G1 X81.38 Y99.482 E107.0711
G1 X66.1 Y84.202 E107.78982
G1 X66.6 Y84.137 E107.80659
G1 X81.361 Y98.897 E108.50088
G1 X81.425 Y98.395 E108.51771
G1 X67.101 Y84.071 E109.19147
G1 X67.602 Y84.007 E109.20827
G1 X81.503 Y97.908 E109.86213
G1 X81.619 Y97.458 E109.87758
G1 X68.103 Y83.942 E110.51333
G1 X68.603 Y83.877 E110.5301
G1 X81.771 Y97.045 E111.14949
G1 X81.931 Y96.638 E111.16403
G1 X69.105 Y83.813 E111.7673
G1 X69.605 Y83.748 E111.78407
G1 X82.14 Y96.282 E112.37366
G1 X82.362 Y95.938 E112.38728
G1 X70.132 Y83.708 E112.96254
G1 X70.697 Y83.707 E112.98133
G1 X82.588 Y95.599 E113.54067
G1 X82.864 Y95.309 E113.55398
G1 X71.419 Y83.864 E114.09232
G1 X71.887 Y83.983 E114.10838
G1 X72.157 Y84.037 E114.11754
G1 X83.139 Y95.018 E114.63408
G1 X83.446 Y94.759 E114.64744
G1 X72.822 Y84.136 E115.14713
G1 X73.428 Y84.176 E115.16733
G1 X83.741 Y94.489 E115.65242
G1 X84.104 Y94.286 E115.66626
G1 X73.948 Y84.13 E116.14396
G1 X74.431 Y84.048 E116.16026
G1 X84.467 Y94.084 E116.63232
G1 X84.83 Y93.881 E116.64616
G1 X74.901 Y83.952 E117.11318
G1 X75.366 Y83.851 E117.12901
G1 X85.166 Y93.651 E117.58997
G1 X85.502 Y93.422 E117.6035
G1 X75.809 Y83.729 E118.05943
G1 X76.257 Y83.61 E118.07484
G1 X85.813 Y93.167 E118.52435
G1 X86.123 Y92.912 E118.5377
G1 X76.727 Y83.516 E118.97966
G1 X77.21 Y83.433 E118.99596
G1 X86.421 Y92.644 E119.42922
G1 X86.689 Y92.346 E119.44255
G1 X77.693 Y83.35 E119.86569
G1 X78.176 Y83.267 E119.88199
G1 X86.935 Y92.026 E120.29399
G1 X87.155 Y91.681 E120.3076
G1 X78.857 Y83.383 E120.69791
G1 X79.249 Y83.209 E120.71218
G1 X87.344 Y91.304 E121.09294
G1 X87.505 Y90.899 E121.10744
G1 X79.68 Y83.074 E121.4755
G1 X80.199 Y83.027 E121.49283
G1 X87.642 Y90.471 E121.84295
G1 X87.772 Y90.035 E121.85808
G1 X80.852 Y83.115 E122.18358
G1 X80.889 Y83.12 E122.18482
G1 X80.889 Y82.997 E122.18891
