;FLAVOR:Marlin
;TIME:17820
;Filament used: 7.06436m
;Layer height: 0.2
;MINX:9.948
;MINY:45.436
;MINZ:0.24
;MAXX:209.594
;MAXY:174.781
;MAXZ:29.69
;TARGET_MACHINE.NAME:Creality Ender-3 Pro
;Generated with Cura_SteamEngine 5.7.1
M82 ;absolute extrusion mode
; Ender 3 Custom Start G-code
G92 E0 ; Reset Extruder
G28 ; Home all axes
G1 Z5.0 F3000 ; Move Z Axis up a bit during heating to not damage bed
M104 S175 ; Start heating up the nozzle most of the way
M190 S60 ; Start heating the bed, wait until target temperature reached
M109 S216.0 ; Finish heating the nozzle
G1 Z2.0 F3000 ; Move Z Axis up little to prevent scratching of Heat Bed
G1 X0.1 Y20 Z0.3 F5000.0 ; Move to start position
G1 X0.1 Y200.0 Z0.3 F1500.0 E15 ; Draw the first line
G1 X0.4 Y200.0 Z0.3 F5000.0 ; Move to side a little
G1 X0.4 Y20 Z0.3 F1500.0 E30 ; Draw the second line
G92 E0 ; Reset Extruder
G1 Z2.0 F3000 ; Move Z Axis up little to prevent scratching of Heat Bed
G1 X5 Y20 Z0.3 F5000.0 ; Move over to prevent blob squish
G92 E0
G92 E0
G1 F1500 E-6.5
;LAYER_COUNT:143
;LAYER:-6
M107
G0 F9000 X108.557 Y81.175 Z0.24
;TYPE:SUPPORT-INTERFACE
G1 F1500 E0
G1 F1125 X96.747 Y128.555 E3.8978
G1 X96.62 Y129.255 E3.95459
G1 X96.588 Y129.904 E4.00646
G1 X96.638 Y130.611 E4.06303
G1 X96.766 Y131.237 E4.11404
G1 X96.914 Y131.712 E4.15375
G1 X97.05 Y132.075 E4.18469
G1 X97.139 Y132.52 E4.22092
G1 X97.334 Y133.215 E4.27854
G1 X97.61 Y133.851 E4.33388
G1 X97.926 Y134.391 E4.38383
G1 X98.334 Y134.93 E4.43779
G1 X98.826 Y135.428 E4.49367
G1 X99.369 Y135.855 E4.54881
G1 X99.949 Y136.198 E4.6026
G1 X100.792 Y136.547 E4.67543
G1 X101.486 Y136.783 E4.73394
G1 X101.501 Y136.772 E4.73543
G1 X102.118 Y137.057 E4.78968
G1 X102.446 Y137.225 E4.8191
G1 X103.092 Y137.589 E4.87829
G1 X104.183 Y138.295 E4.98202
G1 X104.825 Y138.748 E5.04474
G1 X105.742 Y139.431 E5.13601
G1 X106.688 Y140.158 E5.23125
G1 X107.742 Y141.014 E5.33963
G1 X108.696 Y141.807 E5.43866
G1 X109.034 Y142.133 E5.47614
G1 X109.234 Y142.349 E5.49964
G1 X109.596 Y142.703 E5.54006
G1 X110.288 Y143.319 E5.61401
G1 X110.719 Y143.754 E5.66289
G1 X111.321 Y144.339 E5.7299
G1 X112.869 Y145.676 E5.89318
G1 X113.128 Y145.926 E5.92191
G1 X113.334 Y146.155 E5.9465
G1 X113.452 Y146.303 E5.96161
G1 X113.928 Y146.823 E6.01788
G1 X114.382 Y147.249 E6.06758
G1 X115.091 Y147.878 E6.14324
G1 X115.705 Y148.508 E6.21346
G1 X116.046 Y148.827 E6.25073
G1 X116.449 Y149.175 E6.29324
G1 X116.621 Y149.371 E6.31405
G1 X116.673 Y149.367 E6.31821
G1 X117.556 Y150.127 E6.41121
G1 X117.826 Y150.393 E6.44147
G1 X118.014 Y150.602 E6.46391
G1 X118.222 Y150.865 E6.49067
G1 X118.697 Y151.387 E6.54701
G1 X120.614 Y153.036 E6.74886
G1 X120.904 Y153.273 E6.77875
G1 X121.416 Y153.617 E6.82799
G1 X122.041 Y153.94 E6.88415
G1 X122.671 Y154.166 E6.93758
G1 X123.322 Y154.311 E6.99082
G1 X124.169 Y154.379 E7.05865
G1 X177.797 Y154.344 E11.33947
G1 X178.449 Y154.3 E11.39163
G1 X179.12 Y154.173 E11.44614
G1 X179.825 Y153.941 E11.50539
G1 X180.388 Y153.672 E11.5552
G1 X180.989 Y153.288 E11.61213
G1 X181.497 Y152.858 E11.66525
G1 X181.978 Y152.337 E11.72186
G1 X182.424 Y151.704 E11.78367
G1 X182.423 Y151.689 E11.78487
G1 X182.676 Y151.216 E11.82769
G1 X182.922 Y150.586 E11.88167
G1 X183.081 Y149.954 E11.93369
G1 X183.172 Y149.226 E11.99226
G1 X183.159 Y148.521 E12.04854
G1 X183.069 Y147.88 E12.10021
G1 X182.891 Y147.209 E12.15563
G1 X182.629 Y146.579 E12.21009
G1 X182.27 Y145.95 E12.2679
G1 X181.694 Y145.226 E12.34176
G1 X117.685 Y78.738 E19.7089
G1 X117.211 Y78.301 E19.76036
G1 X116.629 Y77.891 E19.81719
G1 X115.981 Y77.549 E19.87568
G1 X115.385 Y77.325 E19.9265
G1 X114.735 Y77.17 E19.97984
G1 X114.055 Y77.092 E20.03448
G1 X113.347 Y77.105 E20.09101
G1 X112.665 Y77.204 E20.14602
G1 X112.033 Y77.379 E20.19836
G1 X111.384 Y77.652 E20.25457
G1 X110.81 Y77.986 E20.30758
G1 X110.424 Y78.274 E20.34602
G1 X110.389 Y78.272 E20.34882
G1 X109.776 Y78.877 E20.41757
G1 X109.333 Y79.439 E20.47469
G1 X109.014 Y79.971 E20.52421
G1 X108.733 Y80.608 E20.57979
G1 X108.557 Y81.175 E20.62718
G1 F1500 E14.12718
G0 F9000 X17.271 Y64.344
G1 F1500 E20.62718
G1 F1125 X17.766 Y64.233 E20.66767
G1 X18.024 Y64.188 E20.68858
G1 X29.764 Y62.667 E21.63355
G1 X30.303 Y62.629 E21.67668
G1 X30.569 Y62.629 E21.69791
G1 X30.998 Y62.651 E21.7322
G1 X31.374 Y62.717 E21.76267
G1 X31.655 Y62.778 E21.78563
G1 X32.087 Y62.89 E21.82125
G1 X32.541 Y63.028 E21.85913
G1 X32.887 Y63.154 E21.88852
G1 X33.306 Y63.326 E21.92468
G1 X33.781 Y63.55 E21.9666
G1 X34.37 Y63.795 E22.01752
G1 X34.968 Y63.962 E22.06708
G1 X35.682 Y64.072 E22.12475
G1 X36.369 Y64.087 E22.1796
G1 X37.02 Y64.021 E22.23183
G1 X37.646 Y63.878 E22.28309
G1 X38.496 Y63.628 E22.35381
G1 X39.751 Y63.275 E22.45788
G1 X41.777 Y62.77 E22.62455
G1 X42.915 Y62.512 E22.7177
G1 X45.221 Y62.062 E22.90525
G1 X46.322 Y61.872 E22.99443
G1 X47.763 Y61.673 E23.11055
G1 X48.87 Y61.542 E23.19953
G1 X49.83 Y61.455 E23.27648
G1 X50.839 Y61.396 E23.35716
G1 X51.868 Y61.381 E23.43931
G1 X52.876 Y61.416 E23.51982
G1 X53.769 Y61.509 E23.59149
G1 X54.264 Y61.589 E23.63151
G1 X54.88 Y61.727 E23.6819
G1 X55.577 Y61.946 E23.74022
G1 X56.158 Y62.179 E23.79019
G1 X56.589 Y62.387 E23.82839
G1 X56.875 Y62.55 E23.85467
G1 X57.145 Y62.726 E23.8804
G1 X57.836 Y63.225 E23.94843
G1 X58.452 Y63.564 E24.00456
G1 X59.036 Y63.796 E24.05472
G1 X59.757 Y63.978 E24.11408
G1 X60.401 Y64.054 E24.16584
G1 X61.103 Y64.049 E24.22188
G1 X61.801 Y63.958 E24.27807
G1 X62.46 Y63.779 E24.33258
G1 X63.048 Y63.539 E24.38328
G1 X63.643 Y63.21 E24.43755
G1 X64.253 Y62.75 E24.49853
G1 X64.681 Y62.342 E24.54574
G1 X65.042 Y61.9 E24.59129
G1 X65.064 Y61.89 E24.59322
G1 X65.538 Y61.132 E24.66458
G1 X65.618 Y60.963 E24.67951
G1 X65.979 Y60.346 E24.73657
G1 X66.219 Y59.992 E24.77071
G1 X66.369 Y59.79 E24.79079
G1 X66.566 Y59.56 E24.81497
G1 X67.007 Y59.092 E24.8663
G1 X67.458 Y58.668 E24.91571
G1 X67.962 Y58.249 E24.96803
G1 X68.234 Y58.041 E24.99536
G1 X69.114 Y57.454 E25.0798
G1 X69.794 Y57.052 E25.14286
G1 X70.216 Y56.825 E25.18111
G1 X71.144 Y56.348 E25.2644
G1 X72.083 Y55.914 E25.34697
G1 X73.277 Y55.402 E25.45067
G1 X74.515 Y54.914 E25.5569
G1 X75.748 Y54.463 E25.6617
G1 X77.006 Y54.032 E25.76785
G1 X78.405 Y53.58 E25.88521
G1 X80.266 Y53.026 E26.0402
G1 X81.849 Y52.586 E26.17135
G1 X83.646 Y52.12 E26.31954
G1 X85.004 Y51.786 E26.43118
G1 X87.191 Y51.3 E26.61001
G1 X88.896 Y50.956 E26.74885
G1 X92.227 Y50.326 E27.01946
G1 X92.883 Y50.16 E27.07348
G1 X93.292 Y50.04 E27.1075
G1 X93.911 Y49.903 E27.15811
G1 X94.932 Y49.634 E27.24239
G1 X95.65 Y49.484 E27.30094
G1 X96.154 Y49.34 E27.34278
G1 X97.28 Y49.074 E27.43514
G1 X97.999 Y48.873 E27.49473
G1 X99.197 Y48.626 E27.59237
G1 X100.028 Y48.401 E27.6611
G1 X100.798 Y48.232 E27.72402
G1 X101.165 Y48.124 E27.75456
G1 X101.828 Y47.88 E27.81096
G1 X102.619 Y47.477 E27.88182
G1 X103.126 Y47.246 E27.92629
G1 X103.709 Y47.027 E27.97601
G1 X104.395 Y46.818 E28.03325
G1 X104.766 Y46.727 E28.06374
G1 X105.261 Y46.631 E28.10399
G1 X105.609 Y46.577 E28.1321
G1 X106.24 Y46.506 E28.18279
G1 X106.25 Y46.516 E28.18392
G1 X106.711 Y46.5 E28.22074
G1 X107.025 Y46.5 E28.2458
G1 X107.475 Y46.516 E28.28175
G1 X107.982 Y46.562 E28.32239
G1 X108.477 Y46.631 E28.36228
G1 X109.002 Y46.735 E28.405
G1 X109.351 Y46.819 E28.43366
G1 X109.976 Y47.008 E28.48578
G1 X110.301 Y47.129 E28.51346
G1 X110.63 Y47.266 E28.54191
G1 X110.64 Y47.26 E28.54284
G1 X111.236 Y47.546 E28.59561
G1 X111.565 Y47.718 E28.62524
G1 X112.053 Y48.006 E28.67048
G1 X112.476 Y48.296 E28.71142
G1 X113.012 Y48.709 E28.76543
G1 X113.477 Y49.123 E28.81513
G1 X113.865 Y49.512 E28.85898
G1 X114.184 Y49.865 E28.89696
G1 X114.421 Y50.156 E28.92692
G1 X114.71 Y50.538 E28.96516
G1 X114.968 Y50.918 E29.00182
G1 X115.217 Y51.321 E29.03964
G1 X115.542 Y51.917 E29.09382
G1 X115.534 Y51.931 E29.09511
G1 X115.654 Y52.183 E29.11739
G1 X115.862 Y52.687 E29.16091
G1 X116.023 Y53.148 E29.19989
G1 X116.132 Y53.512 E29.23022
G1 X116.38 Y54.173 E29.28658
G1 X116.674 Y54.743 E29.33778
G1 X117.089 Y55.339 E29.39575
G1 X117.412 Y55.711 E29.43507
G1 X196.955 Y138.314 E38.58892
G1 X197.435 Y138.757 E38.64106
G1 X197.886 Y139.075 E38.68511
G1 X197.895 Y139.093 E38.68672
G1 X198.611 Y139.481 E38.75173
G1 X199.412 Y139.769 E38.81967
G1 X199.734 Y139.85 E38.84618
G1 X200.816 Y140.201 E38.93698
G1 X201.315 Y140.343 E38.97839
G1 X202.032 Y140.505 E39.03707
G1 X202.98 Y140.757 E39.11537
G1 X203.263 Y140.846 E39.13905
G1 X203.279 Y140.835 E39.1406
G1 X204.553 Y141.369 E39.25087
G1 X205.065 Y141.553 E39.2943
G1 X205.502 Y141.697 E39.33103
G1 X205.768 Y141.803 E39.35389
G1 X206.001 Y141.913 E39.37445
G1 X206.294 Y142.076 E39.40122
G1 X206.531 Y142.228 E39.42369
G1 X206.766 Y142.396 E39.44675
G1 X206.973 Y142.571 E39.46839
G1 X207.192 Y142.779 E39.4925
G1 X207.392 Y142.99 E39.5157
G1 X207.574 Y143.208 E39.53837
G1 X207.742 Y143.446 E39.56163
G1 X207.909 Y143.713 E39.58677
G1 X208.038 Y143.953 E39.60852
G1 X208.156 Y144.203 E39.63058
G1 X208.27 Y144.494 E39.65553
G1 X208.35 Y144.745 E39.67656
G1 X208.432 Y145.08 E39.70409
G1 X208.502 Y145.462 E39.73509
G1 X208.527 Y145.844 E39.76565
G1 X208.524 Y146.192 E39.79343
G1 X208.505 Y146.473 E39.81591
G1 X208.445 Y146.932 E39.85286
G1 X208.334 Y147.366 E39.88862
G1 X201.766 Y170.271 E41.79068
G1 X201.586 Y170.795 E41.83491
G1 X201.43 Y171.159 E41.86652
G1 X201.176 Y171.595 E41.9068
G1 X201.019 Y171.83 E41.92936
G1 X200.772 Y172.151 E41.96169
G1 X200.437 Y172.484 E41.9994
G1 X200.237 Y172.663 E42.02082
G1 X200.001 Y172.843 E42.04451
G1 X199.771 Y173 E42.06674
G1 X199.492 Y173.16 E42.09242
G1 X199.264 Y173.278 E42.11291
G1 X198.976 Y173.402 E42.13794
G1 X198.516 Y173.558 E42.17671
G1 X198.17 Y173.634 E42.20499
G1 X197.836 Y173.686 E42.23197
G1 X197.566 Y173.708 E42.2536
G1 X197.287 Y173.715 E42.27588
G1 X196.998 Y173.704 E42.29896
G1 X196.673 Y173.668 E42.32506
G1 X196.041 Y173.545 E42.37646
G1 X194.106 Y173.039 E42.53611
G1 X193.393 Y172.821 E42.59563
G1 X192.927 Y172.692 E42.63422
G1 X192.92 Y172.697 E42.63491
G1 X192.098 Y172.45 E42.70343
G1 X191.893 Y172.365 E42.72114
G1 X191.008 Y172.097 E42.79495
G1 X190.548 Y172.001 E42.83246
G1 X189.918 Y171.846 E42.88425
G1 X189.908 Y171.833 E42.88556
G1 X189.392 Y171.677 E42.92859
G1 X188.695 Y171.486 E42.98628
G1 X187.882 Y171.183 E43.05554
G1 X187.453 Y171.013 E43.09237
G1 X187.211 Y170.897 E43.1138
G1 X186.791 Y170.646 E43.15285
G1 X186.195 Y170.314 E43.20731
G1 X185.567 Y170.059 E43.26142
G1 X184.89 Y169.878 E43.31736
G1 X184.212 Y169.792 E43.37191
G1 X183.863 Y169.78 E43.39979
G1 X89.239 Y169.828 E50.95308
G1 X88.586 Y169.868 E51.00531
G1 X87.881 Y170.007 E51.06267
G1 X87.214 Y170.229 E51.11878
G1 X86.634 Y170.501 E51.16992
G1 X86.041 Y170.887 E51.2264
G1 X85.328 Y171.521 E51.30256
G1 X85.072 Y171.793 E51.33237
G1 X84.85 Y172.004 E51.35682
G1 X84.634 Y172.184 E51.37927
G1 X84.401 Y172.353 E51.40224
G1 X84.155 Y172.512 E51.42562
G1 X83.866 Y172.671 E51.45195
G1 X83.633 Y172.78 E51.47249
G1 X83.352 Y172.891 E51.49661
G1 X83.08 Y172.979 E51.51943
G1 X82.766 Y173.06 E51.54531
G1 X82.351 Y173.134 E51.57896
G1 X81.962 Y173.16 E51.61008
G1 X81.68 Y173.16 E51.63259
G1 X81.095 Y173.112 E51.67945
G1 X81.086 Y173.102 E51.68052
G1 X80.027 Y172.904 E51.76652
G1 X78.723 Y172.6 E51.8734
G1 X78.091 Y172.426 E51.92573
G1 X75.418 Y171.777 E52.1453
G1 X74.734 Y171.57 E52.20234
G1 X74.322 Y171.432 E52.23703
G1 X73.86 Y171.216 E52.27774
G1 X73.477 Y170.998 E52.31291
G1 X73.129 Y170.738 E52.34759
G1 X72.905 Y170.551 E52.37088
G1 X72.693 Y170.342 E52.39465
G1 X72.508 Y170.139 E52.41657
G1 X72.32 Y169.907 E52.44041
G1 X72.019 Y169.455 E52.48376
G1 X71.865 Y169.165 E52.50997
G1 X71.743 Y168.888 E52.53413
G1 X71.563 Y168.411 E52.57482
G1 X71.448 Y167.807 E52.6239
G1 X71.415 Y167.526 E52.64649
G1 X71.393 Y167.081 E52.68205
G1 X71.433 Y166.64 E52.7174
G1 X71.552 Y165.946 E52.77361
G1 X73.761 Y156.932 E53.51444
G1 X73.874 Y156.285 E53.56686
G1 X73.908 Y155.563 E53.62456
G1 X73.851 Y154.87 E53.68007
G1 X73.734 Y154.283 E53.72784
G1 X73.506 Y153.599 E53.7854
G1 X73.201 Y152.984 E53.84019
G1 X72.944 Y152.571 E53.87902
G1 X71.662 Y150.753 E54.0566
G1 X70.299 Y148.709 E54.25271
G1 X69.538 Y147.518 E54.36553
G1 X68.292 Y145.507 E54.55437
G1 X67.106 Y143.425 E54.74564
G1 X66.666 Y142.621 E54.8188
G1 X66.159 Y141.622 E54.90823
G1 X65.756 Y140.788 E54.98216
G1 X65.425 Y140.031 E55.04811
G1 X65.175 Y139.422 E55.10066
G1 X64.941 Y138.752 E55.15731
G1 X64.778 Y138.21 E55.20249
G1 X64.691 Y137.857 E55.23151
G1 X64.568 Y137.232 E55.28236
G1 X64.499 Y136.581 E55.33462
G1 X64.477 Y136.247 E55.36134
G1 X64.484 Y135.918 E55.38761
G1 X64.526 Y135.441 E55.42583
G1 X64.622 Y134.822 E55.47583
G1 X64.736 Y134.305 E55.51809
G1 X64.901 Y133.751 E55.56423
G1 X65.157 Y133.257 E55.60865
G1 X65.324 Y132.983 E55.63426
G1 X65.585 Y132.606 E55.67086
G1 X65.791 Y132.366 E55.69611
G1 X66.268 Y131.847 E55.75238
G1 X66.642 Y131.48 E55.79421
G1 X66.882 Y131.277 E55.8193
G1 X67.102 Y131.112 E55.84125
G1 X67.349 Y130.95 E55.86483
G1 X67.683 Y130.76 E55.8955
G1 X68.249 Y130.397 E55.94918
G1 X68.775 Y129.956 E56.00397
G1 X69.238 Y129.448 E56.05884
G1 X69.64 Y128.887 E56.11393
G1 X69.966 Y128.268 E56.16977
G1 X70.203 Y127.646 E56.2229
G1 X70.354 Y127.021 E56.27423
G1 X70.436 Y126.3 E56.33215
G1 X70.416 Y125.509 E56.39532
G1 X70.372 Y125.095 E56.42855
G1 X70.365 Y124.572 E56.4703
G1 X70.394 Y124.252 E56.49595
G1 X70.438 Y123.947 E56.52055
G1 X70.497 Y123.674 E56.54284
G1 X70.594 Y123.343 E56.57038
G1 X70.702 Y123.033 E56.59658
G1 X71.066 Y122.308 E56.66134
G1 X71.541 Y121.248 E56.75406
G1 X71.722 Y120.785 E56.79374
G1 X71.933 Y120.191 E56.84406
G1 X71.926 Y120.18 E56.8451
G1 X72.065 Y119.856 E56.87324
G1 X72.055 Y119.841 E56.87468
G1 X72.323 Y119.329 E56.92081
G1 X72.718 Y118.708 E56.97956
G1 X73.47 Y117.709 E57.07937
G1 X73.825 Y117.286 E57.12346
G1 X74.133 Y116.972 E57.15857
G1 X74.487 Y116.694 E57.19449
G1 X74.737 Y116.518 E57.2189
G1 X75.255 Y116.104 E57.27183
G1 X75.915 Y115.427 E57.3473
G1 X75.913 Y115.411 E57.34859
G1 X76.666 Y114.507 E57.44251
G1 X78.167 Y112.766 E57.626
G1 X79.118 Y111.691 E57.74057
G1 X81.019 Y109.591 E57.96668
G1 X82.027 Y108.511 E58.08461
G1 X85.749 Y104.634 E58.51362
G1 X86.331 Y103.962 E58.58458
G1 X86.822 Y103.298 E58.6505
G1 X87.096 Y102.841 E58.69304
G1 X87.4 Y102.18 E58.75111
G1 X87.544 Y101.752 E58.78716
G1 X87.638 Y101.405 E58.81586
G1 X94.093 Y75.421 E60.95306
G1 X94.216 Y74.759 E61.00681
G1 X94.252 Y74.072 E61.06172
G1 X94.208 Y73.396 E61.11579
G1 X94.067 Y72.696 E61.17279
G1 X93.845 Y72.051 E61.22725
G1 X93.55 Y71.445 E61.28105
G1 X93.18 Y70.88 E61.33496
G1 X92.747 Y70.372 E61.38824
G1 X92.234 Y69.904 E61.44367
G1 X91.66 Y69.5 E61.4997
G1 X91.051 Y69.179 E61.55465
G1 X90.435 Y68.952 E61.60706
G1 X89.797 Y68.797 E61.65947
G1 X89.099 Y68.722 E61.7155
G1 X88.379 Y68.736 E61.77299
G1 X87.643 Y68.848 E61.83242
G1 X86.093 Y69.167 E61.95874
G1 X84.286 Y69.51 E62.10555
G1 X82.868 Y69.745 E62.22029
G1 X81.134 Y70.012 E62.36034
G1 X79.029 Y70.298 E62.52991
G1 X76.881 Y70.47 E62.70192
G1 X75.673 Y70.54 E62.79851
G1 X74.395 Y70.563 E62.90054
G1 X73.237 Y70.544 E62.99299
G1 X72.356 Y70.485 E63.06347
G1 X71.933 Y70.438 E63.09745
G1 X71.2 Y70.34 E63.15648
G1 X70.877 Y70.28 E63.1827
G1 X69.947 Y70.072 E63.25878
G1 X69.438 Y69.926 E63.30104
G1 X69.066 Y69.794 E63.33255
G1 X68.66 Y69.673 E63.36637
G1 X67.819 Y69.289 E63.44017
G1 X67.702 Y69.227 E63.45074
G1 X67.279 Y69.035 E63.48782
G1 X67.028 Y68.906 E63.51035
G1 X66.239 Y68.429 E63.58394
G1 X65.629 Y68.161 E63.63713
G1 X64.969 Y67.964 E63.69211
G1 X64.322 Y67.853 E63.74451
G1 X63.655 Y67.82 E63.79782
G1 X62.949 Y67.877 E63.85436
G1 X62.229 Y68.037 E63.91323
G1 X61.641 Y68.247 E63.96307
G1 X61.017 Y68.559 E64.01876
G1 X60.432 Y68.954 E64.07511
G1 X59.96 Y69.366 E64.12512
G1 X59.452 Y69.944 E64.18655
G1 X58.836 Y70.912 E64.27814
G1 X58.537 Y71.329 E64.31909
G1 X58.146 Y71.813 E64.36876
G1 X57.94 Y72.045 E64.39353
G1 X57.739 Y72.246 E64.41622
G1 X57.098 Y72.799 E64.4838
G1 X56.717 Y73.081 E64.52163
G1 X56.136 Y73.47 E64.57745
G1 X55.807 Y73.669 E64.60814
G1 X55.152 Y74.032 E64.66792
G1 X54.043 Y74.563 E64.76607
G1 X53.077 Y74.971 E64.84977
